assets/img/socialmedia/facebook.svg

<svg xmlns="http://www.w3.org/2000/svg" viewBox="0 0 448 512"><!--!Font Awesome Free 7.0.0 by @fontawesome - https://fontawesome.com License - https://fontawesome.com/license/free Copyright 2025 Fonticons, Inc.--><path fill="#FFF" d="M64 32C28.7 32 0 60.7 0 96L0 416c0 35.3 28.7 64 64 64l98.2 0 0-145.8-52.8 0 0-78.2 52.8 0 0-33.7c0-87.1 39.4-127.5 125-127.5 16.2 0 44.2 3.2 55.7 6.4l0 70.8c-6-.6-16.5-1-29.6-1-42 0-58.2 15.9-58.2 57.2l0 27.8 83.6 0-14.4 78.2-69.3 0 0 145.8 129 0c35.3 0 64-28.7 64-64l0-320c0-35.3-28.7-64-64-64L64 32z"/></svg>

<svg xmlns="http://www.w3.org/2000/svg" viewBox="0 0 448 512"><!--! Font Awesome Free 7.0.1 by @fontawesome - https://fontawesome.com License - https://fontawesome.com/license/free (Icons: CC BY 4.0, Fonts: SIL OFL 1.1, Code: MIT License) Copyright 2025 Fonticons, Inc.--><path fill="currentColor" d="M64 32C28.7 32 0 60.7 0 96v320c0 35.3 28.7 64 64 64h98.2V334.2h-52.8V256h52.8v-33.7c0-87.1 39.4-127.5 125-127.5 16.2 0 44.2 3.2 55.7 6.4V172c-6-.6-16.5-1-29.6-1-42 0-58.2 15.9-58.2 57.2V256h83.6l-14.4 78.2H255V480h129c35.3 0 64-28.7 64-64V96c0-35.3-28.7-64-64-64z"/></svg>
